X:1
T:Gray Hen, The
L:1/8
M:2/2
I:linebreak $
K:G
V:1 treble 
V:1
 EAAB c2 BA | BGGA BcdB | EAAB cdef | gedc BA A2 :| a2 ea a2 ge | d2 BG Bd d2 |$ a2 ea a2 ba | %7
 gedc BA A2 | a2 ea a2 ge | d2 BG Bd d2 | EAAB cdef gedc BA A2 || %11
